X: 420
%
U:~=!turn!
T: Miss Rattray
C:
O:Scotland
B:Keith Norman MacDonald : "The Skye collection of the best reels & strathspeys extant" : 1887
Z:Ralph Palmer
R:Reel
M:C
L:1/8
K:D
A/2B/2c/2 | {/c}d2 (AG) FDDF | {/F}GEEA {/G}FDDA | {/c}d2 (AG) FDDg | fdec {/c}d2 d :| A | {/c}defg affa |
be(ed) cAAc | {/c}defg affa | beec {/c}d2 AB | {/c}defg affa | beed cAAc | BGGB FDDg | fdec {/c}d2 d |]


